X:717
L:1/4
M:4/4
K:Dmin
 A/=B/ | c c A/=B/ c | d d D ^F/G/ | A A G/^F/ E | D3 :| A | d3/2 e/ f d | e e !fermata!A A | 
 d3/2 e/ f e/d/ | d3 d | c d B/A/ G | d d D ^F/G/ | A A G/^F/ E | D3 |]

